X:88
T:Leaving Port Askaig 
C:Joe Buchanan's Scottish Tome - Page 081.0
I:081 0
C:Pipe Major W. Ross
R:Jig
S:March
Z:Carl Allison
L:1/8
M:6/8
K:A
e | "A"A>Bc (c<e)c | "E7"B3 "A"A2e | A>Bc ce>a | "D"f3 "E7"(e2g) |
"F#m"a>Aa "D"(f2a) | "A"e>cA "E7"(B2c) | "F#m"A>Bc "A"e>fc | "E7"{c}B3 "A"A2 :|
g | "A"a3 e3 | "D"f<af "E7"e3 | "A"A>Bc c<ea | "D"f3 "E7"(e2g) |
"A"a3 e3 | "D"f<af "E7"e3 | "F#m"A>Bc "A"e>fc | "E7"{c}B3 "A"(A2g) |
"A"a3 e3 | "D"f<af "E7"e3 | "F#m"A>Bc "A"c<ea | "E7"f3 "A"(e2a) |
"A"A>ce "E7"e>fg | "F#m"a>gf "E7"e3 | "F#m"A>Bc "A"e>fc | "E7"{c}B3 "A"A2 |]
B | "A"c>Ac (ce)>c | "E7"B3 "A"(A2B) | (cA)>c (ce)>a | "D"f3 "E7"(e2g) |
"F#m"a>Aa "D"(f2a) | "A"e>cA "E7"(B2c) | "F#m"A>Bc "A"e>fc | "E7"{c}B3 "A"A2 :|
g | "A"a>Aa "D"(f2a) | "D"f>ec "E7"(e2g) | "A"a>Aa "A"e>fa | "D"f3 "E7"(e2g) |
"A"a>Aa (e2a) | "F#m"f>ec "E7"(e2a) | "F#m"A>Bc "A"e>fc | "E7"{c}B3 "A"(A2 g) |
"A"a>Aa "D"(f2a) | "D"f>ec "E7"(e2g) | "A"a>Aa "A"e>fa | "D"f3 "E7"(e2g) |
"A"A>ce "E7"e>fg | "D"a>gf "E7"e3 | "F#m"A>Bc "A"e>fc | "E7"{c}B3 "A"A |]

